icons/code-box-altB.svg

<svg width="24" height="24" viewBox="0 0 24 24" fill="none" xmlns="http://www.w3.org/2000/svg">
<path d="M17.0479 5.29993H6.94788C4.74788 5.29993 2.94788 6.99993 2.94788 9.09993V14.8999C2.94788 16.9999 4.74788 18.6999 6.94788 18.6999H17.0479C19.2479 18.6999 21.0479 16.9999 21.0479 14.8999V9.09993C21.1479 6.99993 19.3479 5.29993 17.0479 5.29993ZM12.4479 13.7999C12.4479 14.8999 11.5479 15.7999 10.4479 15.7999H7.74788C6.64788 15.7999 5.74788 14.8999 5.74788 13.7999V10.0999C5.74788 8.99993 6.64788 8.09993 7.74788 8.09993H10.4479C11.5479 8.09993 12.4479 8.99993 12.4479 10.0999V13.7999Z" fill="black"/>
<path fill-rule="evenodd" clip-rule="evenodd" d="M2.19788 9.09993C2.19788 6.54868 4.37169 4.54993 6.94788 4.54993H17.0479C19.6951 4.54993 21.9101 6.52728 21.7979 9.11694V14.8999C21.7979 17.4512 19.6241 19.4499 17.0479 19.4499H6.94788C4.37169 19.4499 2.19788 17.4512 2.19788 14.8999V9.09993ZM6.94788 6.04993C5.12406 6.04993 3.69788 7.45117 3.69788 9.09993V14.8999C3.69788 16.5487 5.12406 17.9499 6.94788 17.9499H17.0479C18.8717 17.9499 20.2979 16.5487 20.2979 14.8999V9.08208L20.2987 9.06425C20.375 7.46307 18.9943 6.04993 17.0479 6.04993H6.94788ZM7.74788 8.84993C7.06209 8.84993 6.49788 9.41414 6.49788 10.0999V13.7999C6.49788 14.4857 7.06209 15.0499 7.74788 15.0499H10.4479C11.1337 15.0499 11.6979 14.4857 11.6979 13.7999V10.0999C11.6979 9.41414 11.1337 8.84993 10.4479 8.84993H7.74788ZM4.99788 10.0999C4.99788 8.58571 6.23366 7.34993 7.74788 7.34993H10.4479C11.9621 7.34993 13.1979 8.58571 13.1979 10.0999V13.7999C13.1979 15.3141 11.9621 16.5499 10.4479 16.5499H7.74788C6.23366 16.5499 4.99788 15.3141 4.99788 13.7999V10.0999Z" fill="black"/>
<path fill-rule="evenodd" clip-rule="evenodd" d="M7.74792 8.84998C7.06214 8.84998 6.49792 9.41419 6.49792 10.1V13.8C6.49792 14.4858 7.06214 15.05 7.74792 15.05H10.4479C11.1337 15.05 11.6979 14.4858 11.6979 13.8V10.1C11.6979 9.38916 11.2091 8.84998 10.4479 8.84998H7.74792ZM4.99792 10.1C4.99792 8.58576 6.23371 7.34998 7.74792 7.34998H10.4479C12.0867 7.34998 13.1979 8.61079 13.1979 10.1V13.8C13.1979 15.3142 11.9621 16.55 10.4479 16.55H7.74792C6.23371 16.55 4.99792 15.3142 4.99792 13.8V10.1Z" fill="white"/>
<path fill-rule="evenodd" clip-rule="evenodd" d="M14.9175 12.6696C15.2104 12.3767 15.6853 12.3767 15.9782 12.6696L16.7979 13.4893L17.6175 12.6696C17.9104 12.3767 18.3853 12.3767 18.6782 12.6696C18.9711 12.9625 18.9711 13.4374 18.6782 13.7303L17.6782 14.7303C17.1853 15.2232 16.4104 15.2232 15.9175 14.7303L14.9175 13.7303C14.6247 13.4374 14.6247 12.9625 14.9175 12.6696Z" fill="white"/>
<path fill-rule="evenodd" clip-rule="evenodd" d="M16.6979 10.2106L17.5176 11.0303C17.8105 11.3232 18.2853 11.3232 18.5782 11.0303C18.8711 10.7374 18.8711 10.2625 18.5782 9.96965L17.5782 8.96965C17.0853 8.47675 16.3105 8.47675 15.8176 8.96965L14.8176 9.96965C14.5247 10.2625 14.5247 10.7374 14.8176 11.0303C15.1105 11.3232 15.5853 11.3232 15.8782 11.0303L16.6979 10.2106Z" fill="white"/>
</svg>

<svg xmlns="http://www.w3.org/2000/svg" fill="none" viewBox="0 0 24 24">
  <path fill="#000" d="M17.048 5.3h-10.1c-2.2 0-4 1.7-4 3.8v5.8c0 2.1 1.8 3.8 4 3.8h10.1c2.2 0 4-1.7 4-3.8V9.1c.1-2.1-1.7-3.8-4-3.8Zm-4.6 8.5c0 1.1-.9 2-2 2h-2.7c-1.1 0-2-.9-2-2v-3.7c0-1.1.9-2 2-2h2.7c1.1 0 2 .9 2 2v3.7Z"/>
  <path fill="#000" fill-rule="evenodd" d="M2.198 9.1c0-2.551 2.174-4.55 4.75-4.55h10.1c2.647 0 4.862 1.977 4.75 4.567V14.9c0 2.551-2.174 4.55-4.75 4.55h-10.1c-2.576 0-4.75-1.999-4.75-4.55V9.1Zm4.75-3.05c-1.824 0-3.25 1.401-3.25 3.05v5.8c0 1.649 1.426 3.05 3.25 3.05h10.1c1.824 0 3.25-1.401 3.25-3.05V9.064c.077-1.6-1.304-3.014-3.25-3.014h-10.1Zm.8 2.8c-.686 0-1.25.564-1.25 1.25v3.7c0 .686.564 1.25 1.25 1.25h2.7c.686 0 1.25-.564 1.25-1.25v-3.7c0-.686-.564-1.25-1.25-1.25h-2.7Zm-2.75 1.25a2.756 2.756 0 0 1 2.75-2.75h2.7a2.756 2.756 0 0 1 2.75 2.75v3.7a2.756 2.756 0 0 1-2.75 2.75h-2.7a2.756 2.756 0 0 1-2.75-2.75v-3.7Z" clip-rule="evenodd"/>
  <path fill="#fff" fill-rule="evenodd" d="M7.748 8.85c-.686 0-1.25.564-1.25 1.25v3.7c0 .686.564 1.25 1.25 1.25h2.7c.686 0 1.25-.564 1.25-1.25v-3.7c0-.71-.489-1.25-1.25-1.25h-2.7Zm-2.75 1.25a2.756 2.756 0 0 1 2.75-2.75h2.7c1.639 0 2.75 1.26 2.75 2.75v3.7a2.756 2.756 0 0 1-2.75 2.75h-2.7a2.756 2.756 0 0 1-2.75-2.75v-3.7Zm9.92 2.57a.75.75 0 0 1 1.06 0l.82.82.82-.82a.75.75 0 0 1 1.06 1.06l-1 1a1.233 1.233 0 0 1-1.76 0l-1-1a.75.75 0 0 1 0-1.06Zm1.78-2.46.82.82a.75.75 0 1 0 1.06-1.06l-1-1a1.233 1.233 0 0 0-1.76 0l-1 1a.75.75 0 0 0 1.06 1.06l.82-.82Z" clip-rule="evenodd"/>
</svg>
